public/flags/FJ.svg

<svg fill="none" height="53" viewBox="0 0 61 53" width="61" xmlns="http://www.w3.org/2000/svg" xmlns:xlink="http://www.w3.org/1999/xlink"><linearGradient id="a" gradientUnits="userSpaceOnUse" x1="1" x2="1" y1="3" y2="22.8333"><stop offset="0" stop-color="#042c90"/><stop offset="1" stop-color="#00247e"/></linearGradient><linearGradient id="b" gradientUnits="userSpaceOnUse" x1="1" x2="1" y1="3" y2="24.25"><stop offset="0" stop-color="#fff"/><stop offset="1" stop-color="#f0f0f0"/></linearGradient><mask id="c" height="43" maskUnits="userSpaceOnUse" width="59" x="1" y="3"><rect fill="#fff" height="42.5" rx="4.24286" width="59" x="1" y="3"/></mask><mask id="d" height="21" maskUnits="userSpaceOnUse" width="15" x="37" y="14"><path clip-rule="evenodd" d="m37.5239 24.25c0-4.25 0-9.9167 0-9.9167h14.0476v9.9167c0 7.0833-7.0238 9.9167-7.0238 9.9167s-7.0238-2.8334-7.0238-9.9167z" fill="#fff" fill-rule="evenodd"/></mask><rect fill="#fff" height="42.5" rx="4.24286" width="59" x="1" y="3"/><g mask="url(#c)"><path d="m1 3h59v42.5h-59z" fill="#79cff6"/><path d="m1 3h25.2857v19.8333h-25.2857z" fill="url(#a)"/><path clip-rule="evenodd" d="m37.5239 24.25c0-4.25 0-9.9167 0-9.9167h14.0476v9.9167c0 7.0833-7.0238 9.9167-7.0238 9.9167s-7.0238-2.8334-7.0238-9.9167z" fill="#fff" fill-rule="evenodd"/><g clip-rule="evenodd" fill-rule="evenodd" mask="url(#d)"><path d="m50.1668 20c0 .7824-.6289 1.4167-1.4047 1.4167-.7759 0-1.4048-.6343-1.4048-1.4167s.6289-1.4167 1.4048-1.4167c.7758 0 1.4047.6343 1.4047 1.4167zm-8.4286 0c0 .7824-.6289 1.4167-1.4047 1.4167-.7759 0-1.4048-.6343-1.4048-1.4167s.6289-1.4167 1.4048-1.4167c.7758 0 1.4047.6343 1.4047 1.4167z" fill="#2a915c"/><path d="m37.5239 14.3333h14.0476v2.8334h-5.619v5.6666h5.619v2.8334h-5.619v8.5h-2.8095v-8.5h-5.6191v-2.8334h5.6191v-5.6666h-5.6191z" fill="#eb1d43"/></g><path d="m1 2.29286h-1.899402l1.436963 1.24212 9.588639 8.28852v2.1477l-9.539515 6.8717-.293828.2116v.3622 1.4166 1.2816l1.084203-.6833 11.06534-6.9745h2.377l9.526 6.862c.1998.1439.4399.2214.6862.2214 1.0876 0 1.5906-1.3511.7678-2.0623l-8.6399-7.4683v-2.1478l9.2457-6.66c.369-.26579.5877-.6928.5877-1.14756v-1.05454-1.2816l-1.0842.68337-11.0653 6.97442h-2.3771l-9.64822-6.94997-.18514-.13336h-.22818z" fill="#db1e36" stroke="#fff" stroke-width="1.41429"/><g clip-rule="evenodd" fill-rule="evenodd"><path d="m1 10.0833v5.6667h9.8333v7.0857c0 .7811.6332 1.4143 1.4143 1.4143h2.7905c.7811 0 1.4143-.6332 1.4143-1.4143v-7.0857h9.8238c.7811 0 1.4143-.6332 1.4143-1.4143v-2.8381c0-.7811-.6332-1.4143-1.4143-1.4143h-9.8238v-7.0833h-5.6191v7.0833z" fill="url(#b)"/><path d="m1 11.5h11.2381v-1.4167-7.0833h2.8095v7.0833 1.4167h11.2381v2.8333h-11.2381v1.4167 7.0833h-2.8095v-7.0833-1.4167h-11.2381z" fill="#db1e36"/></g></g></svg>

<svg width="61" height="53" viewBox="0 0 61 53" fill="none" xmlns="http://www.w3.org/2000/svg">
<rect x="1" y="3" width="59" height="42.5" rx="4.24286" fill="white"/>
<mask id="mask0" mask-type="alpha" maskUnits="userSpaceOnUse" x="1" y="3" width="59" height="43">
<rect x="1" y="3" width="59" height="42.5" rx="4.24286" fill="white"/>
</mask>
<g mask="url(#mask0)">
<rect x="1" y="3" width="59" height="42.5" fill="#79CFF6"/>
<rect x="1" y="3" width="25.2857" height="19.8333" fill="url(#paint0_linear)"/>
<path fill-rule="evenodd" clip-rule="evenodd" d="M37.5239 24.25C37.5239 20 37.5239 14.3333 37.5239 14.3333H51.5715C51.5715 14.3333 51.5715 20 51.5715 24.25C51.5715 31.3333 44.5477 34.1667 44.5477 34.1667C44.5477 34.1667 37.5239 31.3333 37.5239 24.25Z" fill="white"/>
<mask id="mask1" mask-type="alpha" maskUnits="userSpaceOnUse" x="37" y="14" width="15" height="21">
<path fill-rule="evenodd" clip-rule="evenodd" d="M37.5239 24.25C37.5239 20 37.5239 14.3333 37.5239 14.3333H51.5715C51.5715 14.3333 51.5715 20 51.5715 24.25C51.5715 31.3333 44.5477 34.1667 44.5477 34.1667C44.5477 34.1667 37.5239 31.3333 37.5239 24.25Z" fill="white"/>
</mask>
<g mask="url(#mask1)">
<path fill-rule="evenodd" clip-rule="evenodd" d="M50.1668 20C50.1668 20.7824 49.5379 21.4167 48.7621 21.4167C47.9862 21.4167 47.3573 20.7824 47.3573 20C47.3573 19.2176 47.9862 18.5833 48.7621 18.5833C49.5379 18.5833 50.1668 19.2176 50.1668 20ZM41.7382 20C41.7382 20.7824 41.1093 21.4167 40.3335 21.4167C39.5576 21.4167 38.9287 20.7824 38.9287 20C38.9287 19.2176 39.5576 18.5833 40.3335 18.5833C41.1093 18.5833 41.7382 19.2176 41.7382 20Z" fill="#2A915C"/>
<path fill-rule="evenodd" clip-rule="evenodd" d="M37.5239 14.3333H51.5715V17.1667H45.9525V22.8333H51.5715V25.6667H45.9525V34.1667H43.143V25.6667H37.5239V22.8333H43.143V17.1667H37.5239V14.3333Z" fill="#EB1D43"/>
</g>
<path d="M1 2.29286H-0.899402L0.537561 3.53498L10.1262 11.8235V13.9712L0.586685 20.8429L0.292857 21.0545V21.4167V22.8333V24.1149L1.37706 23.4316L12.4424 16.4571H14.8194L24.3454 23.3191C24.5452 23.463 24.7853 23.5405 25.0316 23.5405C26.1192 23.5405 26.6222 22.1894 25.7994 21.4782L17.1595 14.0099V11.8621L26.4052 5.2021C26.7742 4.93631 26.9929 4.5093 26.9929 4.05454V3V1.7184L25.9087 2.40177L14.8434 9.37619H12.4663L2.81808 2.42622L2.63294 2.29286H2.40476H1Z" fill="#DB1E36" stroke="white" stroke-width="1.41429"/>
<path fill-rule="evenodd" clip-rule="evenodd" d="M1 10.0833V15.75H10.8333V22.8357C10.8333 23.6168 11.4665 24.25 12.2476 24.25H15.0381C15.8192 24.25 16.4524 23.6168 16.4524 22.8357V15.75H26.2762C27.0573 15.75 27.6905 15.1168 27.6905 14.3357V11.4976C27.6905 10.7165 27.0573 10.0833 26.2762 10.0833H16.4524V3H10.8333V10.0833H1Z" fill="url(#paint1_linear)"/>
<path fill-rule="evenodd" clip-rule="evenodd" d="M1 11.5H12.2381V10.0833V3H15.0476V10.0833V11.5H26.2857V14.3333H15.0476V15.75V22.8333H12.2381V15.75V14.3333H1V11.5Z" fill="#DB1E36"/>
</g>
<defs>
<linearGradient id="paint0_linear" x1="1" y1="3" x2="1" y2="22.8333" gradientUnits="userSpaceOnUse">
<stop stop-color="#042C90"/>
<stop offset="1" stop-color="#00247E"/>
</linearGradient>
<linearGradient id="paint1_linear" x1="1" y1="3" x2="1" y2="24.25" gradientUnits="userSpaceOnUse">
<stop stop-color="white"/>
<stop offset="1" stop-color="#F0F0F0"/>
</linearGradient>
</defs>
</svg>
